X:1
T: St. Margaret's Hill
N:
C:
S:
A:
O:
R:
M:3/2
K:Am
I:speed 180
%W: A1
% voice 1 (1 lines, 22 notes)
K:Am
M:3/2
L:1/16
c2 d2 e4 |d4 c4 |B4 A4 |B2 c2 d4 |d4 e4 |f8 |e6 |f2 g4 |d4 e4 |f4 d12 |c4 c8 |
%W:
% voice 1 (1 lines, 22 notes)
c2 d2 e4 |d4 c4 |B4 A4 |B2 c2 d4 |d4 e4 |f8 |e4 c4 |c4 e4 |d4 B4 |B12 |A4 A8 |
%W: A2
% voice 1 (1 lines, 22 notes)
c2 d2 e4 |d4 c4 |B4 A4 |B2 c2 d4 |d4 e4 |f8 |e6 |f2 g4 |d4 e4 |f4 d12 |c4 c8 |
%W:
% voice 1 (1 lines, 22 notes)
c2 d2 e4 |d4 c4 |B4 A4 |B2 c2 d4 |d4 e4 |f8 |e4 c4 |c4 e4 |d4 B4 |B12 |A4 A8 |
%W: B1
% voice 1 (1 lines, 23 notes)
a4 f4 |f4 a4 |g4 f2 |e2 d4 |e2 f2 g4 |f2 e2 d8 |A6 |B2 c4 |B4 c4 |d4 d12 |c4 c8 |
%W:
% voice 1 (1 lines, 21 notes)
B6 |c2 d4 |B4 e4 |A4 ^G4 |A4 B4 |c4 d8 |e4 c4 |c4 e4 |d4 c2 |B2 B12 |A4 A8 |
%W: B2
% voice 1 (1 lines, 23 notes)
a4 f4 |f4 a4 |g4 f2 |e2 d4 |e2 f2 g4 |f2 e2 d8 |A6 |B2 c4 |B4 c4 |d4 d12 |c4 c8 |
%W:
% voice 1 (1 lines, 21 notes)
B6 |c2 d4 |B4 e4 |A4 ^G4 |A4 B4 |c4 d8 |e4 c4 |c4 e4 |d4 c2 |B2 B12 |A4 A8 ||
